X: 1
T: Mad Skeletons Of St Pancras, The
M: 4/4
L: 1/8
R: reel
K: Emin
A3 B EG ~G2 | AcBG FG~G2 | EGBF GBEG | ~F3G AGFG |
A3B EG ~G2 | AcBG FG~G2| BF~F2 BF~F2 | BAAG GFFE:|
~e3B  AG B/2^c/2d| ^cdBc ABFA | ~E3G Begb| ~f3d Adfd | 
~e3B AG B/2^c/2d| ^cdBc ABFA | BF~F2 BF~F2 | defd e4 :|
